X:1
T:Kellswaterside
M:3/4
L:1/4
K:C
 A3/4- G/4| F DE/2-F/2| C D F| G F D| D2 D/2E/2| F G A| d cd/2-c/2|\
 A F G| A2 C| F G A| d cd/2-c/2| A F G| A2c/2-A/2| G FD/2-F/2| C D F|\
 G F D| D2||
